X:1
T:Gold Ring, pt.1
R:jig
M:6/8
L:1/8
K:G
d|BAG A2d|cAG ~G3|BAG A2d|cDE ~F3|
BAG A2d|cAG ~G3|gbg afd|cAF G2:|
A|~B3 Bdc|~A3 dcA|~G3 GFG|AdB BAG|
~B3 Bdc|~A3 A2G|FDE F2d|cAF G2:|
<abc>
